remix/Finance/ticket-fill.svg

<svg viewBox="0 0 24 24" fill="currentColor" xmlns="http://www.w3.org/2000/svg"><path d="M21.0049 2.99966C21.5572 2.99966 22.0049 3.44738 22.0049 3.99966V9.49966C20.6242 9.49966 19.5049 10.619 19.5049 11.9997C19.5049 13.3804 20.6242 14.4997 22.0049 14.4997V19.9997C22.0049 20.5519 21.5572 20.9997 21.0049 20.9997H3.00488C2.4526 20.9997 2.00488 20.5519 2.00488 19.9997V14.4997C3.38559 14.4997 4.50488 13.3804 4.50488 11.9997C4.50488 10.619 3.38559 9.49966 2.00488 9.49966V3.99966C2.00488 3.44738 2.4526 2.99966 3.00488 2.99966H21.0049Z"/></svg>

<svg viewBox="0 0 24 24" xmlns="http://www.w3.org/2000/svg"><path fill="none" d="M0 0h24v24H0Z"/><path d="M21 3v0c.55 0 1 .44 1 1v5.5 0c-1.39 0-2.5 1.11-2.5 2.5 0 1.38 1.11 2.5 2.5 2.5V20v0c0 .55-.45 1-1 1H3v0c-.56 0-1-.45-1-1v-5.5 0c1.38 0 2.5-1.12 2.5-2.5 0-1.39-1.12-2.5-2.5-2.5V4v0c0-.56.44-1 1-1h18Z"/></svg>
